X:1
T: The Boatie Rows
C:
R:Strathspey
Q:128
K:A
M:4/4
L:1/16
|:A4|c2e6 e6f2|e4a4 b2a2 g2f2|e2c6 B4A4|c8 B4A4|
c2e6 e6f2|e4a4 b2a2 g2f2|e2c6 B6c2|A8-A4e4|
a4e4 e4f2g2|a4e4 e4a4|f6e2 f4a4|b12g4|
a2c'6 f2a6|e6a2 e4c4|B6A2 B4c4|A8-A4:|
